!!!!SEGMENT: pl-sa--l-1636--008_anonim--preludium.krn
!!!cenid: 17xx:715
!!!COM: Anonim
!!!COM-rismid: pe30004985
!!!CDT:
!!!CNT:
!!!OTL: Preludium
!!!PDT:
!!!AGN: Secular; Prelude
!!!SMS-siglum: PL-SA
!!!SMS-shelfmark: L 1636
!!!SMS-shelfwork: 008 W
!!!SMS-variant:
!!!SMS-altvar:
!!!NIFC-rismid: 1001076393
!!!URL-scan: http://repozytorium.nifc.pl/skany/pl-sa-nut--l1636
!!!ONB-nifc: 3r, skan 0006
**kern	**kern
*part2	*part1
*staff2	*staff1
*Iempty	*Iempty
*I"	*I"
*I'keyb	*I'keyb
*clefF4	*clefC1
*k[]	*k[]
*d:	*d:
*M2/2	*M2/2
*met(c|)	*met(c|)
=1	=1
*	*^
*2\right	*2\right	*
!	!LO:TX:b:i:t=Preludium	!
!LO:TX:a:t=P:problem:wszystkie caudy z prawej	!LO:TX:a:t=P:problem:wszystkie caudy z prawej	!
1DD 1AA 1D	2a/ 2dd	2d\ 2f
.	2a/	[<2f\
=2	=2	=2
2r	1g	2f\]
2G\	.	2e\
=3	=3	=3
4A\	1f	2e\
4G\	.	.
4A\	.	2d\
4F\	.	.
=4	=4	=4
4G\	1e	2d\
4E\	.	.
4A\	.	2c\
4G\	.	.
=5	=5	=5
4F\	1d	2c\
4D\	.	.
4G\	.	2B\
4F\	.	.
=6	=6	=6
4E\	1c	2B\
!LO:TX:a:t=P:problem:brak nuty - zniszczony papier	!	!
4C\yy	.	.
4F\	.	2A\
4E\	.	.
=7	=7	=7
4D/	1B	2A\
4BB/	.	.
4E\	.	2G#X\
4EE/	.	.
=8	=8	=8
1AA 1E 1A	2A/ 2c 2e	2ryy
.	2ee/	2cc\
!!LO:LB:g=original
=9	=9	=9
*clefC4	*	*
!LO:TX:a:t=P:problem:zmiana klucza w poprzednim systemie?	!	!
!LO:TX:a:t=P:problem:brak nuty - papier zniszczony	!	!
4ryy	1dd	2cc\
4c\	.	.
2d\	.	2b\
=10	=10	=10
4e\	1cc	2b\
4d\	.	.
4e\	.	2a\
4c\	.	.
=11	=11	=11
4d\	1b	2a\
4B\	.	.
4e\	.	2g\
4d\	.	.
=12	=12	=12
4c\	1a	2g\
4A\	.	.
4d\	.	2f\
4c\	.	.
=13	=13	=13
4B\	1g	2f\
4G\	.	.
4c\	.	2e\
4B\	.	.
=14	=14	=14
4A/	1f	2e\
4F/	.	.
4B-\	.	2d\
4A\	.	.
=15	=15	=15
4G/	1e	2d\
4E/	.	.
4A\	.	2c#X\
4AA/	.	.
*	*v	*v
*clefF4	*
=16	=16
*^	*
2D/	2DD/	1d 1f 1a
2A/	2F\	.
!!LO:LB:g=original
=17	=17	=17
1G	2F\	2r
.	2E\	2g\ 2b
=18	=18	=18
1F	2E\	4a\
.	.	4g\
.	2D\	4a\
.	.	4f/
=19	=19	=19
1E	2D\	4g/
.	.	4e/
.	2C\	2a\
=20	=20	=20
1D	2C\	2d/
.	2BB\	2dd\
=21	=21	=21
1C	2BB\	4ee\
.	.	4dd\
.	2AA\	4ee\
.	.	4cc\
=22	=22	=22
1BB	2AA\	4dd\
.	.	4b\
.	2GG\	2ee\
=23	=23	=23
1AA	2GG\	2a\
*	*	*clefG2
.	2FF\	2aa\
*v	*v	*
=24	=24
*	*^
4B-X\	2aa/	1dd
4A\	.	.
!LO:TX:a:t=P:problem:brak nuty - papier zniszczony	!	!
4B-\yy	2gg/	.
4G\	.	.
=25	=25	=25
4A\	2gg/	1cc
4G\	.	.
4A\	2ff/	.
4F\	.	.
!!LO:LB:g=original
=26	=26	=26
*	*clefC1	*
4G\	2ff/	1b
4F\	.	.
4G\	2ee/	.
4E\	.	.
=27	=27	=27
4F\	2ee/	1a
4E\	.	.
4F\	2dd/	.
4D\	.	.
=28	=28	=28
4E\	2dd/	1g
4D\	.	.
4E\	2cc/	.
4C/	.	.
=29	=29	=29
4D/	2cc/	1f
4C/	.	.
4D/	2b/	.
4BB/	.	.
=30	=30	=30
4C/	2b/	1e
4BB/	.	.
4C/	2a/	.
4AA/	.	.
=31	=31	=31
4BB-X/	2a/	1d
4AA/	.	.
4BB-/	2g/	.
8AA/L	.	.
8GG/J	.	.
=32	=32	=32
4AA/	2g/	2c#X\
8BB/L	.	.
!LO:TX:b:t=P:problem:# below	!	!
8C#X/J	.	.
8D\L	2f/	2d\
8E\	.	.
8F\	.	.
8G\J	.	.
=33	=33	=33
8A\L	1e	2d\
8E\	.	.
8F\	.	.
8G\J	.	.
!LO:TX:a:t=P:problem:mixed beam	!	!
8A\L	.	2c\
8G\	.	.
8A\	.	.
8AA/J	.	.
*	*v	*v
=34	=34
!LO:TX:a:t=P:problem:takt słabo czytelny	!LO:TX:a:t=P:problem:takt słabo czytelny
8E\L	8c/L
16F\L	16d/L
16G\JJ	16e/JJ
!LO:TX:a:t=P:problem:trudny do zidentyfikowania znak nad nutą	!
8G\L	4.e;>/
8F\J	.
2E\	.
.	8d/
.	4c/
!!LO:LB:g=original
=35	=35
!	!LO:TX:a:t=P:problem:akord nieczytelny
1AA	1ryy
==	==
*-	*-
!!!system-decoration: [(s1,s2)]
!!!RDF**kern: > = above
!!!RDF**kern: < = below
!!!EED: Mateusz Mrugas
!!!EST: 2020-12-07
!!!ENC:Andrzej Borzym
!!!END:2020-06-11
